svg/24/display--filled.svg

<svg width="24" height="24" viewBox="0 0 24 24" fill="currentColor" xmlns="http://www.w3.org/2000/svg"><path d="M4 4C2.89543 4 2 4.89543 2 6V15C2 16.1046 2.89543 17 4 17H20C21.1046 17 22 16.1046 22 15V6C22 4.89543 21.1046 4 20 4H4Z"/><path d="M9.75 18.5C9.33579 18.5 9 18.8358 9 19.25C9 19.6642 9.33579 20 9.75 20H14.25C14.6642 20 15 19.6642 15 19.25C15 18.8358 14.6642 18.5 14.25 18.5H9.75Z"/></svg>

<svg xmlns="http://www.w3.org/2000/svg" width="24" height="24" fill="currentColor" viewBox="0 0 24 24">
  <path d="M4 4a2 2 0 0 0-2 2v9a2 2 0 0 0 2 2h16a2 2 0 0 0 2-2V6a2 2 0 0 0-2-2H4Zm5.75 14.5a.75.75 0 0 0 0 1.5h4.5a.75.75 0 0 0 0-1.5h-4.5Z"/>
</svg>
